<?xml version="1.0" encoding="UTF-8"?>
<map version="1.10" tiledversion="1.12.1" orientation="orthogonal" renderorder="right-down" width="70" height="20" tilewidth="16" tileheight="16" infinite="0" nextlayerid="3" nextobjectid="16">
 <tileset firstgid="1" name="tilemap_packed" tilewidth="16" tileheight="16" tilecount="60" columns="10">
  <image source="../../kenney_pixel-line-platformer/Tilemap/tilemap_packed.png" width="160" height="96"/>
  <tile id="2">
   <properties>
    <property name="collision" type="bool" value="true"/>
   </properties>
  </tile>
  <tile id="3">
   <properties>
    <property name="collides" type="bool" value="true"/>
   </properties>
  </tile>
  <tile id="4">
   <properties>
    <property name="collides" type="bool" value="true"/>
   </properties>
  </tile>
  <tile id="5">
   <properties>
    <property name="collides" type="bool" value="true"/>
   </properties>
  </tile>
  <tile id="6">
   <properties>
    <property name="collides" type="bool" value="true"/>
   </properties>
  </tile>
  <tile id="7">
   <properties>
    <property name="collides" type="bool" value="true"/>
   </properties>
  </tile>
  <tile id="8">
   <properties>
    <property name="collides" type="bool" value="true"/>
   </properties>
  </tile>
  <tile id="9">
   <properties>
    <property name="collides" type="bool" value="true"/>
   </properties>
  </tile>
  <tile id="12">
   <properties>
    <property name="collision" type="bool" value="true"/>
   </properties>
  </tile>
  <tile id="13">
   <properties>
    <property name="collides" type="bool" value="true"/>
   </properties>
  </tile>
  <tile id="19">
   <properties>
    <property name="collides" type="bool" value="false"/>
   </properties>
  </tile>
  <tile id="20">
   <properties>
    <property name="collides" type="bool" value="true"/>
   </properties>
  </tile>
  <tile id="21">
   <properties>
    <property name="collides" type="bool" value="true"/>
   </properties>
  </tile>
  <tile id="22">
   <properties>
    <property name="collides" type="bool" value="true"/>
   </properties>
  </tile>
  <tile id="23">
   <properties>
    <property name="collides" type="bool" value="false"/>
   </properties>
  </tile>
  <tile id="24">
   <properties>
    <property name="collision" type="bool" value="true"/>
   </properties>
  </tile>
  <tile id="25">
   <properties>
    <property name="collision" type="bool" value="true"/>
   </properties>
  </tile>
  <tile id="27">
   <properties>
    <property name="collides" type="bool" value="true"/>
   </properties>
  </tile>
  <tile id="28">
   <properties>
    <property name="collides" type="bool" value="true"/>
   </properties>
  </tile>
  <tile id="29">
   <properties>
    <property name="collides" type="bool" value="false"/>
    <property name="collision" type="bool" value="true"/>
   </properties>
  </tile>
  <tile id="30">
   <properties>
    <property name="collides" type="bool" value="true"/>
   </properties>
  </tile>
  <tile id="36">
   <properties>
    <property name="collision" type="bool" value="true"/>
   </properties>
  </tile>
  <tile id="37">
   <properties>
    <property name="collision" type="bool" value="true"/>
   </properties>
  </tile>
 </tileset>
 <layer id="1" name="Ground-n-Platformer" width="70" height="20">
  <data encoding="csv">
1,1,1,1,1,1,1,1,1,1,1,1,1,1,1,1,1,1,1,1,1,1,1,1,1,1,1,1,1,1,1,1,1,1,1,1,1,1,1,1,1,1,1,1,1,1,1,1,1,1,1,1,1,1,1,1,1,1,1,1,1,1,1,1,1,1,1,1,1,1,
1,1,1,1,1,1,1,1,1,1,1,1,1,1,1,1,1,1,1,1,1,1,1,1,1,1,1,1,1,1,1,1,1,1,1,1,1,1,1,1,1,1,1,1,1,1,1,1,1,1,1,1,1,1,1,1,1,1,1,1,1,12,1,1,1,1,1,1,1,1,
1,1,1,12,1,1,1,1,1,1,1,1,1,1,1,1,1,1,1,1,1,1,1,1,1,2,3,3,1,1,1,1,1,1,1,1,1,1,2,3,1,1,1,1,1,1,1,1,7,8,9,1,1,1,1,1,1,1,1,1,1,1,1,1,1,1,1,12,1,1,
1,1,1,1,1,1,1,1,2,3,1,1,1,1,1,1,1,1,1,1,1,1,1,1,1,12,13,13,1,1,1,1,1,1,1,1,1,1,12,13,1,1,1,1,1,31,1,10,17,18,19,1,1,1,37,1,1,1,1,1,1,1,1,1,1,1,1,1,1,1,
1,1,1,1,12,1,1,1,12,13,1,1,1,1,1,1,1,1,1,1,1,1,1,1,1,1,1,1,1,1,1,1,1,1,1,1,1,1,1,1,1,1,1,1,10,58,1,1,1,1,1,1,4,5,6,13,1,1,1,1,1,1,1,1,1,1,1,1,1,1,
1,1,1,1,1,1,1,1,1,1,1,1,1,1,1,1,1,1,1,1,1,1,1,1,1,1,1,1,1,1,1,1,1,1,1,1,1,1,1,1,28,29,1,1,1,1,21,22,23,23,23,1,14,15,16,1,1,1,1,1,1,1,1,1,12,1,1,1,1,39,
1,1,1,1,1,1,1,1,1,1,1,1,1,1,1,1,1,1,7,8,9,1,1,1,1,1,1,1,1,1,1,1,1,4,5,6,1,1,1,1,1,1,1,1,1,1,1,1,1,1,39,1,1,1,1,1,1,1,20,1,1,1,1,1,28,29,1,1,1,1,
1,1,2,3,1,1,1,1,1,1,1,1,1,1,1,1,1,1,17,18,19,1,1,1,1,1,1,1,1,1,1,1,1,14,15,16,1,1,1,1,1,1,1,13,1,1,1,1,1,1,49,1,1,1,1,1,1,1,1,1,1,1,1,1,1,1,1,1,1,1,
1,1,12,13,1,1,1,1,1,1,1,1,1,1,1,1,1,1,1,1,1,1,1,1,1,1,1,1,1,1,21,22,23,24,25,16,1,28,29,1,1,1,1,1,1,1,1,1,1,1,59,1,1,37,1,1,1,1,1,12,1,1,1,1,1,1,1,1,1,1,
1,1,1,1,1,1,1,1,1,1,1,1,1,1,7,8,9,1,1,1,1,1,1,1,1,35,36,32,1,1,1,1,1,1,1,19,1,1,1,1,1,1,1,1,1,1,1,1,1,1,10,1,1,4,5,6,1,1,1,1,1,28,29,1,1,1,20,1,1,10,
1,1,1,1,1,1,1,1,1,1,1,1,1,1,17,18,19,1,1,1,1,1,1,1,4,5,21,22,23,1,1,1,1,1,1,1,1,1,28,29,1,1,1,1,1,1,7,8,9,1,1,1,1,14,15,16,1,1,37,1,1,1,1,1,1,1,1,1,1,1,
1,1,1,1,1,1,1,1,7,8,9,1,1,1,1,1,1,1,1,1,1,1,1,1,14,15,1,1,1,1,31,1,1,1,1,1,1,1,1,1,1,1,1,1,1,1,17,18,19,1,1,1,1,1,1,1,1,1,28,29,1,1,1,1,1,1,1,1,1,1,
1,1,1,1,1,1,1,1,17,18,19,1,1,1,1,1,1,1,1,1,1,28,29,1,1,1,1,1,1,1,48,1,1,1,1,1,1,1,1,28,29,1,1,7,8,9,1,1,1,1,1,1,1,1,1,1,1,1,1,1,1,1,1,1,20,13,1,1,1,12,
1,1,1,1,1,1,33,1,1,1,1,1,7,8,9,1,1,1,7,8,9,1,1,1,1,1,1,1,1,31,58,1,1,1,1,1,1,1,1,1,1,1,1,17,18,19,1,1,1,1,1,1,1,1,1,1,1,1,1,1,1,1,12,20,1,1,1,1,1,1,
33,12,13,28,21,22,23,1,1,1,1,1,17,18,19,1,1,1,17,18,19,1,1,1,1,1,1,1,1,48,1,1,1,1,1,1,1,1,1,1,28,29,1,1,1,1,1,1,1,1,1,1,13,1,1,1,1,1,1,1,1,20,1,1,1,1,1,1,1,1,
21,22,23,24,1,1,1,1,1,1,1,1,1,1,1,1,1,1,1,1,1,1,1,1,1,1,1,1,31,58,1,1,1,1,2,3,1,1,1,1,1,1,1,1,1,1,1,1,1,1,1,1,1,1,1,1,1,1,1,1,1,1,1,1,1,1,1,1,1,1,
1,1,1,1,1,1,1,1,1,1,1,1,1,1,1,1,1,1,1,1,1,1,1,1,1,1,1,1,48,1,1,1,1,1,12,13,1,1,1,1,1,1,1,1,1,1,1,1,1,1,1,1,1,1,13,1,1,1,1,1,12,1,1,1,1,1,1,1,12,1,
1,1,1,1,1,1,1,1,1,1,1,1,1,1,1,28,8,9,1,1,1,1,1,1,1,1,1,1,58,1,1,1,1,1,1,1,1,1,1,1,1,1,1,1,1,1,1,1,1,1,1,1,1,1,1,1,1,1,1,1,1,1,1,1,1,1,1,1,1,1,
1,1,1,1,1,1,1,1,1,1,1,1,1,1,1,1,1,1,8,8,8,8,29,1,1,10,1,1,1,1,1,1,1,1,1,1,1,1,1,1,1,1,1,1,1,1,13,1,1,1,1,1,1,1,1,1,1,1,1,1,1,1,1,1,1,1,1,12,1,1,
1,1,1,1,1,1,1,1,1,1,1,1,1,1,1,1,1,1,18,18,18,18,1,1,1,1,1,1,1,1,1,1,1,1,1,1,1,1,1,1,1,1,1,1,1,1,1,1,1,1,1,1,1,1,1,1,1,1,1,1,1,1,1,1,1,1,1,1,1,1
</data>
 </layer>
 <objectgroup id="2" name="Objects">
  <object id="1" name="coin" gid="55" x="753.708" y="45.8153" width="16" height="16"/>
  <object id="2" name="coin" gid="55" x="800.527" y="80.9295" width="16" height="16"/>
  <object id="3" name="coin" gid="55" x="399.865" y="288.013" width="16" height="16"/>
  <object id="4" name="coin" gid="55" x="317.932" y="80.0291" width="16" height="16"/>
  <object id="5" name="coin" gid="56" x="225.194" y="143.955" width="16" height="16"/>
  <object id="6" name="coin" gid="56" x="289.12" y="288.013" width="16" height="16"/>
  <object id="7" name="coin" gid="56" x="515.112" y="126.848" width="16" height="16"/>
  <object id="9" name="end" gid="59" x="1102.67" y="146.667" width="16" height="16"/>
  <object id="11" name="end" gid="49" x="1102.67" y="131.334" width="16" height="16"/>
  <object id="12" name="end" gid="39" x="1102" y="114" width="16" height="16"/>
  <object id="15" gid="44" x="1104.67" y="83.3333" width="16" height="16" rotation="-180"/>
 </objectgroup>
</map>
